X: 10224
T: Dixie, The
R: reel
M: 4/4
K: Cmajor
ED|:CB,CD EDEF|GAGF G^DEG|ABAG AGFG|ADFG ABcd|
eged ecGA|cdcB cGEF|GAGF GEDE|1 CDA,B, CGED:|2 CDA,B, CDEG||
cedc dcAG|AdcB cA^GA|dedc d A^GA|fedc BGAB|
cedc dcAG|AdcB cA ^GA|GE ^DE cBAG|EDCE DG,A,B,|
CDCB, CGFE|DED ^C D AG ^F|GE ^DE ce=dc|dcBd c G,A,B,|
CDCB, CGFE|DED ^C D AG ^F|GE ^DE ce=dc|dcBd cGED||

